X:466
T:Honest John Part Two
C:Traditional American
B:Northern Junket Vol. 1, No. 10, 1950 - Ralph Page
L:1/8
M:2/4
R:Reel
%%MIDI gchord fzczfzcz
S:Colin Hume's website,  colinhume.com  - chords can also be printed below the stave.
N:See https://colinhume.com/instnj.htm#John2
Q:1/4=123
%%MIDI ratio 3 1
K:G
"G"BBBB | "C"ccc2 | "G"BBBG | "D7"A4 | "G"BBBB | "C"cc e>e | "G"dB"D7"cA | "G"G4 |
"G"gfge | dBB2 | "G"gfgB | "D7"A4 | "G"gfge | "G"dBce | "G"dB"D7"cA | "G"G3 B/A/ |
"G"G/F/G/A/ GB/c/ | d/e/d/B/ dG/A/ | "G"BBBG/A/ | "D7"BAAB/A/ |\
"G"G/F/G/A/ GB/c/ | d/e/d/B/ dG/A/ | "G"B/A/B/c/ d/B/G/A/ | "D7"BG "G"GG/A/ |
"G"B/c/d/e/ dd/c/ | B/c/d/e/ d2 | "C"c/d/e/f/ ee/d/ | c/d/e/f/ ee/f/ |\
"G"ggdd | "G"B/c/B/G/ "D7"AG/A/ | "G"BB/G/ "D7"A/G/E/F/ | "G"GG G |]

